src/main/resources/static/fa/svgs/regular/trash-can.svg

<svg xmlns="http://www.w3.org/2000/svg" viewBox="0 0 448 512"><!--! Font Awesome Free 6.5.2 by @fontawesome - https://fontawesome.com License - https://fontawesome.com/license/free (Icons: CC BY 4.0, Fonts: SIL OFL 1.1, Code: MIT License) Copyright 2024 Fonticons, Inc. --><path d="M170.5 51.6L151.5 80h145l-19-28.4c-1.5-2.2-4-3.6-6.7-3.6H177.1c-2.7 0-5.2 1.3-6.7 3.6zm147-26.6L354.2 80H368h48 8c13.3 0 24 10.7 24 24s-10.7 24-24 24h-8V432c0 44.2-35.8 80-80 80H112c-44.2 0-80-35.8-80-80V128H24c-13.3 0-24-10.7-24-24S10.7 80 24 80h8H80 93.8l36.7-55.1C140.9 9.4 158.4 0 177.1 0h93.7c18.7 0 36.2 9.4 46.6 24.9zM80 128V432c0 17.7 14.3 32 32 32H336c17.7 0 32-14.3 32-32V128H80zm80 64V400c0 8.8-7.2 16-16 16s-16-7.2-16-16V192c0-8.8 7.2-16 16-16s16 7.2 16 16zm80 0V400c0 8.8-7.2 16-16 16s-16-7.2-16-16V192c0-8.8 7.2-16 16-16s16 7.2 16 16zm80 0V400c0 8.8-7.2 16-16 16s-16-7.2-16-16V192c0-8.8 7.2-16 16-16s16 7.2 16 16z"/></svg>

<svg xmlns="http://www.w3.org/2000/svg" viewBox="0 0 448 512"><!--! Font Awesome Free 6.1.1 by @fontawesome - https://fontawesome.com License - https://fontawesome.com/license/free (Icons: CC BY 4.0, Fonts: SIL OFL 1.1, Code: MIT License) Copyright 2022 Fonticons, Inc. --><path d="M160 400C160 408.8 152.8 416 144 416C135.2 416 128 408.8 128 400V192C128 183.2 135.2 176 144 176C152.8 176 160 183.2 160 192V400zM240 400C240 408.8 232.8 416 224 416C215.2 416 208 408.8 208 400V192C208 183.2 215.2 176 224 176C232.8 176 240 183.2 240 192V400zM320 400C320 408.8 312.8 416 304 416C295.2 416 288 408.8 288 400V192C288 183.2 295.2 176 304 176C312.8 176 320 183.2 320 192V400zM317.5 24.94L354.2 80H424C437.3 80 448 90.75 448 104C448 117.3 437.3 128 424 128H416V432C416 476.2 380.2 512 336 512H112C67.82 512 32 476.2 32 432V128H24C10.75 128 0 117.3 0 104C0 90.75 10.75 80 24 80H93.82L130.5 24.94C140.9 9.357 158.4 0 177.1 0H270.9C289.6 0 307.1 9.358 317.5 24.94H317.5zM151.5 80H296.5L277.5 51.56C276 49.34 273.5 48 270.9 48H177.1C174.5 48 171.1 49.34 170.5 51.56L151.5 80zM80 432C80 449.7 94.33 464 112 464H336C353.7 464 368 449.7 368 432V128H80V432z"/></svg>
